X: 0953
T: BONAPARTE CROSSING THE RHINE
B: Oliver Ditson "The Boston Collection of Instrumental Music" 1910 p.95 #3
F: http://conquest.imslp.info/files/imglnks/usimg/8/8f/IMSLP175643-PMLP309456-bostoncollection00bost_bw.pdf
%: 2012 John Chambers <jc:trillian.mit.edu>
M: 4/4
L: 1/8
K: Am
E2 |\
A2AB AGE2 | cdec d2eg | aged cAGE | G2GA G2EG |\
A2AB AGE2 | cdec d2eg | aged cAGE | A2A2 A2 :|
|: eg |\
aged cdeg | agec d2eg | aged cAGE | G2GA G2EG |\
A2AB AGE2 | cdec d2eg | aged cAGE | A2A2 A2 :|

%%sep 1 1 500
%%sep 1 1 500
